public/icons/instagram.svg

<svg width="67" height="67" viewBox="0 0 67 67" fill="none" xmlns="http://www.w3.org/2000/svg">
<path d="M21.775 5.58301H45.225C54.1583 5.58301 61.4166 12.8413 61.4166 21.7747V45.2247C61.4166 49.519 59.7107 53.6374 56.6742 56.6739C53.6377 59.7104 49.5193 61.4163 45.225 61.4163H21.775C12.8416 61.4163 5.58331 54.158 5.58331 45.2247V21.7747C5.58331 17.4804 7.28922 13.362 10.3257 10.3254C13.3623 7.28891 17.4807 5.58301 21.775 5.58301ZM21.2166 11.1663C18.5512 11.1663 15.995 12.2252 14.1102 14.1099C12.2255 15.9947 11.1666 18.5509 11.1666 21.2163V45.783C11.1666 51.3384 15.6612 55.833 21.2166 55.833H45.7833C48.4487 55.833 51.005 54.7742 52.8897 52.8894C54.7745 51.0047 55.8333 48.4484 55.8333 45.783V21.2163C55.8333 15.6609 51.3387 11.1663 45.7833 11.1663H21.2166ZM48.1562 15.3538C49.0817 15.3538 49.9693 15.7215 50.6237 16.3759C51.2782 17.0303 51.6458 17.9179 51.6458 18.8434C51.6458 19.7689 51.2782 20.6565 50.6237 21.3109C49.9693 21.9654 49.0817 22.333 48.1562 22.333C47.2307 22.333 46.3431 21.9654 45.6887 21.3109C45.0343 20.6565 44.6666 19.7689 44.6666 18.8434C44.6666 17.9179 45.0343 17.0303 45.6887 16.3759C46.3431 15.7215 47.2307 15.3538 48.1562 15.3538ZM33.5 19.5413C37.202 19.5413 40.7523 21.0119 43.37 23.6296C45.9877 26.2473 47.4583 29.7977 47.4583 33.4997C47.4583 37.2017 45.9877 40.752 43.37 43.3697C40.7523 45.9874 37.202 47.458 33.5 47.458C29.798 47.458 26.2476 45.9874 23.6299 43.3697C21.0123 40.752 19.5416 37.2017 19.5416 33.4997C19.5416 29.7977 21.0123 26.2473 23.6299 23.6296C26.2476 21.0119 29.798 19.5413 33.5 19.5413ZM33.5 25.1247C31.2788 25.1247 29.1486 26.007 27.578 27.5777C26.0073 29.1483 25.125 31.2785 25.125 33.4997C25.125 35.7209 26.0073 37.8511 27.578 39.4217C29.1486 40.9923 31.2788 41.8747 33.5 41.8747C35.7212 41.8747 37.8514 40.9923 39.422 39.4217C40.9926 37.8511 41.875 35.7209 41.875 33.4997C41.875 31.2785 40.9926 29.1483 39.422 27.5777C37.8514 26.007 35.7212 25.1247 33.5 25.1247Z" fill="white"/>
</svg>

<svg xmlns="http://www.w3.org/2000/svg" width="67" height="67" fill="none"><path fill="#fff" d="M21.775 5.583h23.45c8.933 0 16.192 7.258 16.192 16.192v23.45a16.19 16.19 0 0 1-16.192 16.191h-23.45c-8.933 0-16.192-7.258-16.192-16.191v-23.45A16.19 16.19 0 0 1 21.775 5.583m-.558 5.583a10.05 10.05 0 0 0-10.05 10.05v24.567c0 5.555 4.494 10.05 10.05 10.05h24.566a10.05 10.05 0 0 0 10.05-10.05V21.216c0-5.555-4.494-10.05-10.05-10.05zm26.94 4.188a3.49 3.49 0 1 1 0 6.98 3.49 3.49 0 0 1 0-6.98M33.5 19.54a13.958 13.958 0 1 1 0 27.917 13.958 13.958 0 0 1 0-27.917m0 5.584a8.375 8.375 0 1 0 0 16.749 8.375 8.375 0 0 0 0-16.75"/></svg>
